X:20
T:The Weaver's March
C:Trad
M:4/4
L:1/8
K:D
|:FG|ABAG FG A2|B2B2A4|Bc d2cd e2|g2f2e2FG|
ABAG FG A2|B2B2A4|Bc d2cd e2|e4d2:|
|:de|f2gf e2fe|dfed dcBA|Bc d2c2d2|g2f2e4|
ABAG FG A2|Bc d2A4|Bc d2c2de|e4d2:|
